libs/icons/src/svg/settings-filled.svg

<svg width="16" height="16" viewBox="0 0 16 16" fill="none" xmlns="http://www.w3.org/2000/svg">
<g clip-path="url(#clip0_3_1704)">
<path d="M14.6667 6.66667H13.846C13.6961 6.00862 13.4355 5.38081 13.0753 4.81L13.6567 4.22867C13.8995 3.9772 14.0339 3.64039 14.0309 3.2908C14.0279 2.9412 13.8876 2.60679 13.6404 2.35958C13.3932 2.11236 13.0588 1.97214 12.7092 1.9691C12.3596 1.96606 12.0228 2.10046 11.7713 2.34333L11.19 2.92467C10.6192 2.56454 9.99138 2.30395 9.33333 2.154V1.33333C9.33333 0.979711 9.19286 0.640573 8.94281 0.390524C8.69276 0.140476 8.35362 0 8 0C7.64638 0 7.30724 0.140476 7.05719 0.390524C6.80714 0.640573 6.66667 0.979711 6.66667 1.33333V2.154C6.00862 2.30395 5.38081 2.56454 4.81 2.92467L4.22867 2.34333C3.9772 2.10046 3.64039 1.96606 3.2908 1.9691C2.9412 1.97214 2.60679 2.11236 2.35958 2.35958C2.11236 2.60679 1.97214 2.9412 1.9691 3.2908C1.96606 3.64039 2.10046 3.9772 2.34333 4.22867L2.92467 4.81C2.56454 5.38081 2.30395 6.00862 2.154 6.66667H1.33333C0.979711 6.66667 0.640573 6.80714 0.390524 7.05719C0.140476 7.30724 0 7.64638 0 8C0 8.35362 0.140476 8.69276 0.390524 8.94281C0.640573 9.19286 0.979711 9.33333 1.33333 9.33333H2.154C2.30395 9.99138 2.56454 10.6192 2.92467 11.19L2.34333 11.7713C2.10046 12.0228 1.96606 12.3596 1.9691 12.7092C1.97214 13.0588 2.11236 13.3932 2.35958 13.6404C2.60679 13.8876 2.9412 14.0279 3.2908 14.0309C3.64039 14.0339 3.9772 13.8995 4.22867 13.6567L4.81 13.0753C5.38081 13.4355 6.00862 13.6961 6.66667 13.846V14.6667C6.66667 15.0203 6.80714 15.3594 7.05719 15.6095C7.30724 15.8595 7.64638 16 8 16C8.35362 16 8.69276 15.8595 8.94281 15.6095C9.19286 15.3594 9.33333 15.0203 9.33333 14.6667V13.846C9.99138 13.6961 10.6192 13.4355 11.19 13.0753L11.7713 13.6567C12.0228 13.8995 12.3596 14.0339 12.7092 14.0309C13.0588 14.0279 13.3932 13.8876 13.6404 13.6404C13.8876 13.3932 14.0279 13.0588 14.0309 12.7092C14.0339 12.3596 13.8995 12.0228 13.6567 11.7713L13.0753 11.19C13.4355 10.6192 13.6961 9.99138 13.846 9.33333H14.6667C15.0203 9.33333 15.3594 9.19286 15.6095 8.94281C15.8595 8.69276 16 8.35362 16 8C16 7.64638 15.8595 7.30724 15.6095 7.05719C15.3594 6.80714 15.0203 6.66667 14.6667 6.66667ZM8 10.6667C7.47258 10.6667 6.95701 10.5103 6.51848 10.2173C6.07995 9.92424 5.73815 9.50776 5.53632 9.02049C5.33449 8.53322 5.28168 7.99704 5.38457 7.47976C5.48747 6.96248 5.74144 6.48732 6.11438 6.11438C6.48732 5.74144 6.96248 5.48747 7.47976 5.38457C7.99704 5.28168 8.53322 5.33449 9.02049 5.53632C9.50776 5.73815 9.92424 6.07995 10.2173 6.51848C10.5103 6.95701 10.6667 7.47258 10.6667 8C10.6667 8.70724 10.3857 9.38552 9.88562 9.88562C9.38552 10.3857 8.70724 10.6667 8 10.6667Z" fill="#202327"/>
</g>
<defs>
<clipPath id="clip0_3_1704">
<rect width="16" height="16" fill="white"/>
</clipPath>
</defs>
</svg>

<svg xmlns="http://www.w3.org/2000/svg" viewBox="0 0 16 16" class="sageicon"><path d="M14.667 6.667h-.821a5.96 5.96 0 0 0-.77-1.857l.58-.581a1.334 1.334 0 0 0-1.885-1.886l-.581.582a5.962 5.962 0 0 0-1.857-.771v-.82a1.333 1.333 0 1 0-2.666 0v.82c-.658.15-1.286.41-1.857.77l-.581-.58a1.333 1.333 0 0 0-1.886 1.885l.582.581c-.36.57-.621 1.199-.771 1.857h-.82a1.333 1.333 0 1 0 0 2.666h.82c.15.658.41 1.286.77 1.857l-.58.581a1.333 1.333 0 0 0 1.885 1.886l.581-.582c.57.36 1.199.621 1.857.771v.82a1.333 1.333 0 0 0 2.666 0v-.82a5.96 5.96 0 0 0 1.857-.77l.581.58a1.334 1.334 0 0 0 1.886-1.885l-.582-.581c.36-.57.621-1.199.771-1.857h.82a1.333 1.333 0 0 0 0-2.666Zm-6.667 4a2.667 2.667 0 1 1 0-5.334 2.667 2.667 0 0 1 0 5.334Z"/></svg>
